src/next/cmd/lc_print.svg

<svg height="24" viewBox="0 0 24 24" width="24" xmlns="http://www.w3.org/2000/svg" xmlns:xlink="http://www.w3.org/1999/xlink"><linearGradient id="a" gradientUnits="userSpaceOnUse" x1="68" x2="68" y1="4" y2="48"><stop offset="0" stop-color="#fff"/><stop offset=".54545456" stop-color="#ebebeb"/><stop offset=".90909094" stop-color="#bababa"/><stop offset="1" stop-color="#7e7e7f"/></linearGradient><linearGradient id="b" gradientTransform="matrix(.90905844 0 0 1 6.009307 .000007)" gradientUnits="userSpaceOnUse" x1="64" x2="64" y1="48" y2="72"><stop offset="0" stop-color="#6e4388"/><stop offset=".21062189" stop-color="#651d8d"/><stop offset=".5" stop-color="#ac7ec6"/><stop offset=".66666639" stop-color="#ca87dc"/><stop offset="1" stop-color="#ebeaeb"/></linearGradient><linearGradient id="c" gradientTransform="matrix(1 0 0 1.1111111 0 -5.777778)" gradientUnits="userSpaceOnUse" x1="64" x2="64" y1="88" y2="56"><stop offset="0" stop-color="#7f7f81"/><stop offset=".44999999" stop-color="#b6b6b7"/><stop offset=".67499995" stop-color="#f5f5f5"/><stop offset="1" stop-color="#cfcfcf"/></linearGradient><linearGradient id="d" gradientTransform="matrix(1 0 0 .62584105 0 25.44281)" gradientUnits="userSpaceOnUse" x1="52" x2="76" y1="72" y2="72"><stop offset="0"/><stop offset=".66666669" stop-color="#a6a6a6" stop-opacity=".866667"/><stop offset="1" stop-opacity=".737089"/></linearGradient><linearGradient id="e" gradientUnits="userSpaceOnUse" x1="68" x2="67.435677" y1="120" y2="93.627121"><stop offset="0" stop-color="#fefefe"/><stop offset=".5" stop-color="#f7f7f7"/><stop offset=".91002578" stop-color="#8c8c8c"/><stop offset="1" stop-color="#666"/></linearGradient><linearGradient id="f" gradientUnits="userSpaceOnUse" x1="64.254234" x2="64.254234" y1="44" y2="64"><stop offset="0" stop-color="#baaac4"/><stop offset="1" stop-color="#baaac4" stop-opacity="0"/></linearGradient><linearGradient id="g" gradientUnits="userSpaceOnUse" x1="64" x2="64" y1="96" y2="48"><stop offset="0" stop-color="#0b0b0b"/><stop offset="1" stop-color="#1d1d1d"/></linearGradient><g transform="matrix(.17187562 0 0 .17187562 1.000068 1.999714)"><rect height="4.037014" rx=".206393" ry=".409933" width="88" x="20" y="112"/><rect fill="#1d1d1d" height="23.272627" rx="8" transform="scale(1 -1)" width="127.99944" x="-.000399" y="-64.001472"/><rect fill="url(#g)" height="46.545258" rx=".222269" ry=".304689" width="127.99944" x="-.000399" y="52.365158"/><rect fill="#b6b6b6" height="17.45447" rx="7.428572" ry="8" transform="scale(1 -1)" width="116.36314" x="5.817758" y="-58.183315"/><rect fill="url(#c)" height="40.727097" rx=".206393" ry=".27699" width="116.36314" x="5.817758" y="52.365158"/><rect fill="#111012" height="34.908543" rx=".206393" ry=".298754" width="81.453568" x="23.272228" y="11.638058"/><rect fill="#3e3c41" height="30.229706" rx=".18346" ry=".249291" width="69.817314" x="29.090385" y="17.456215"/><rect fill="#28232c" height="15.2715" rx=".208005" ry=".274643" width="93.179428" x="17.4543" y="40.7285"/><rect fill="#9f9f9f" fill-opacity=".996078" height="58.181114" rx=".240792" ry=".294617" width="58.181057" x="34.908543" y="-5.816414"/><rect fill="url(#a)" height="46.544857" rx=".206393" ry=".249291" width="46.5448" x="40.7267" y=".001743"/><path d="m20.3781 40.835999h87.6219c.10394 0 .18762.155157.18762.347885v16.468231c0 .192728-.12556.264562-.18762.347885l-7.44861 9.999997.36376 5.999998h-73.452206l.363766-5.999998-7.44861-9.999997c-.06776-.09097-.187624-.155157-.187624-.347885v-16.468231c0-.192728.08368-.347885.187624-.347885z" style="stroke:#1f1f1f;stroke-width:3;stroke-linecap:square;stroke-linejoin:round;stroke-opacity:.924883;fill:url(#b)"/><g fill-rule="evenodd"><path d="m22 92-2 20h88l-2-20z" fill="#424245"/><path d="m29.938517 92.01838-4.311398 28.59179h77.605171l-4.311402-28.59179z" fill="#434343"/><path d="m32.019511 92.01838-3.997561 25.99714h71.9561l-3.997561-25.99714z" fill="url(#e)"/></g><rect height="8.546765" rx=".206393" ry=".266329" width="72" x="28" y="84.001602"/><rect fill="url(#d)" height="7.421373" rx=".206393" ry=".156017" width="23.2724" x="52.3629" y="68.215729"/><rect fill="url(#f)" height="23.2724" opacity=".92" rx=".30959" ry="1.007805" width="46.5448" x="40.7267" y="40.7285"/><rect fill="#986aae" height="15.118958" rx=".281181" ry=".640315" width="45.170921" x="42.100578" y="40.7285"/><rect fill="#c9b1d5" height="11.6362" rx=".257991" ry=".525472" width="40.775043" x="43.841286" y="40.7285"/><rect fill="#1d1d1d" height="5.8181" rx=".257991" ry=".266553" width="34.9077" x="46.5457" y="40.7285"/><path d="m28 84-.537056-10.000005h73.452206l-.91515 10.000005z" fill="#545156" fill-rule="evenodd"/></g></svg>

<?xml version="1.0" encoding="UTF-8" standalone="no"?>
<svg
   xmlns:dc="http://purl.org/dc/elements/1.1/"
   xmlns:cc="http://creativecommons.org/ns#"
   xmlns:rdf="http://www.w3.org/1999/02/22-rdf-syntax-ns#"
   xmlns:svg="http://www.w3.org/2000/svg"
   xmlns="http://www.w3.org/2000/svg"
   xmlns:sodipodi="http://sodipodi.sourceforge.net/DTD/sodipodi-0.dtd"
   xmlns:inkscape="http://www.inkscape.org/namespaces/inkscape"
   height="24"
   viewBox="0 0 24 24"
   width="24"
   version="1.1"
   id="svg101"
   sodipodi:docname="lc_print.svg"
   inkscape:version="0.92.4 (unknown)"
   inkscape:export-filename="/home/rizmut/Dokumen/Rizmut/Github/libreoffice-style-karasa-jaga/build/next/cmd/lc_print.png"
   inkscape:export-xdpi="18"
   inkscape:export-ydpi="18">
  <metadata
     id="metadata107">
    <rdf:RDF>
      <cc:Work
         rdf:about="">
        <dc:format>image/svg+xml</dc:format>
        <dc:type
           rdf:resource="http://purl.org/dc/dcmitype/StillImage" />
        <dc:title></dc:title>
      </cc:Work>
    </rdf:RDF>
  </metadata>
  <defs
     id="defs105" />
  <sodipodi:namedview
     pagecolor="#ffffff"
     bordercolor="#666666"
     borderopacity="1"
     objecttolerance="10"
     gridtolerance="10"
     guidetolerance="10"
     inkscape:pageopacity="0"
     inkscape:pageshadow="2"
     inkscape:window-width="1366"
     inkscape:window-height="706"
     id="namedview103"
     showgrid="true"
     inkscape:zoom="14.75"
     inkscape:cx="14.045436"
     inkscape:cy="23.489007"
     inkscape:window-x="0"
     inkscape:window-y="0"
     inkscape:window-maximized="1"
     inkscape:current-layer="svg101">
    <inkscape:grid
       type="xygrid"
       id="grid914"
       spacingx="0.5"
       spacingy="0.5" />
  </sodipodi:namedview>
  <linearGradient
     id="a"
     gradientUnits="userSpaceOnUse"
     x1="68"
     x2="68"
     y1="4"
     y2="48">
    <stop
       offset="0"
       stop-color="#fff"
       id="stop2" />
    <stop
       offset=".54545456"
       stop-color="#ebebeb"
       id="stop4" />
    <stop
       offset=".90909094"
       stop-color="#bababa"
       id="stop6" />
    <stop
       offset="1"
       stop-color="#7e7e7f"
       id="stop8" />
  </linearGradient>
  <linearGradient
     id="b"
     gradientTransform="matrix(0.90905844,0,0,1,6.009307,7e-6)"
     gradientUnits="userSpaceOnUse"
     x1="64"
     x2="64"
     y1="48"
     y2="72">
    <stop
       offset="0"
       stop-color="#6e4388"
       id="stop11" />
    <stop
       offset=".21062189"
       stop-color="#651d8d"
       id="stop13" />
    <stop
       offset=".5"
       stop-color="#ac7ec6"
       id="stop15" />
    <stop
       offset=".66666639"
       stop-color="#ca87dc"
       id="stop17" />
    <stop
       offset="1"
       stop-color="#ebeaeb"
       id="stop19" />
  </linearGradient>
  <linearGradient
     id="c"
     gradientTransform="matrix(1,0,0,1.1111111,0,-5.777778)"
     gradientUnits="userSpaceOnUse"
     x1="64"
     x2="64"
     y1="88"
     y2="56">
    <stop
       offset="0"
       stop-color="#7f7f81"
       id="stop22" />
    <stop
       offset=".44999999"
       stop-color="#b6b6b7"
       id="stop24" />
    <stop
       offset=".67499995"
       stop-color="#f5f5f5"
       id="stop26" />
    <stop
       offset="1"
       stop-color="#cfcfcf"
       id="stop28" />
  </linearGradient>
  <linearGradient
     id="d"
     gradientTransform="matrix(1,0,0,0.62584105,0,25.44281)"
     gradientUnits="userSpaceOnUse"
     x1="52"
     x2="76"
     y1="72"
     y2="72">
    <stop
       offset="0"
       id="stop31" />
    <stop
       offset=".66666669"
       stop-color="#a6a6a6"
       stop-opacity=".866667"
       id="stop33" />
    <stop
       offset="1"
       stop-opacity=".737089"
       id="stop35" />
  </linearGradient>
  <linearGradient
     id="e"
     gradientUnits="userSpaceOnUse"
     x1="68"
     x2="67.435677"
     y1="120"
     y2="93.627121">
    <stop
       offset="0"
       stop-color="#fefefe"
       id="stop38" />
    <stop
       offset=".5"
       stop-color="#f7f7f7"
       id="stop40" />
    <stop
       offset=".91002578"
       stop-color="#8c8c8c"
       id="stop42" />
    <stop
       offset="1"
       stop-color="#666"
       id="stop44" />
  </linearGradient>
  <linearGradient
     id="f"
     gradientUnits="userSpaceOnUse"
     x1="64.254234"
     x2="64.254234"
     y1="44"
     y2="64">
    <stop
       offset="0"
       stop-color="#baaac4"
       id="stop47" />
    <stop
       offset="1"
       stop-color="#baaac4"
       stop-opacity="0"
       id="stop49" />
  </linearGradient>
  <linearGradient
     id="g"
     gradientUnits="userSpaceOnUse"
     x1="64"
     x2="64"
     y1="96"
     y2="48">
    <stop
       offset="0"
       stop-color="#0b0b0b"
       id="stop52" />
    <stop
       offset="1"
       stop-color="#1d1d1d"
       id="stop54" />
  </linearGradient>
  <g
     id="g938"
     transform="matrix(0.17187562,0,0,0.17187562,1.000068,1.9997141)">
    <rect
       id="rect57"
       y="112"
       x="20"
       width="88"
       ry="0.409933"
       rx="0.206393"
       height="4.037014" />
    <rect
       id="rect59"
       y="-64.001472"
       x="-0.00039938037"
       width="127.99944"
       transform="scale(1,-1)"
       rx="8"
       height="23.272627"
       style="fill:#1d1d1d" />
    <rect
       id="rect61"
       y="52.365158"
       x="-0.00039938037"
       width="127.99944"
       ry="0.30468899"
       rx="0.222269"
       height="46.545258"
       style="fill:url(#g)" />
    <rect
       id="rect63"
       y="-58.183315"
       x="5.8177576"
       width="116.36314"
       transform="scale(1,-1)"
       ry="8"
       rx="7.4285722"
       height="17.45447"
       style="fill:#b6b6b6" />
    <rect
       id="rect65"
       y="52.365158"
       x="5.8177576"
       width="116.36314"
       ry="0.27699"
       rx="0.206393"
       height="40.727097"
       style="fill:url(#c)" />
    <rect
       id="rect67"
       y="11.638058"
       x="23.272228"
       width="81.453568"
       ry="0.29875401"
       rx="0.206393"
       height="34.908543"
       style="fill:#111012" />
    <rect
       id="rect69"
       y="17.456215"
       x="29.090385"
       width="69.817314"
       ry="0.249291"
       rx="0.18346"
       height="30.229706"
       style="fill:#3e3c41" />
    <rect
       id="rect71"
       y="40.7285"
       x="17.4543"
       width="93.179428"
       ry="0.274643"
       rx="0.208005"
       height="15.2715"
       style="fill:#28232c" />
    <rect
       id="rect73"
       y="-5.8164139"
       x="34.908543"
       width="58.181057"
       ry="0.294617"
       rx="0.24079201"
       height="58.181114"
       style="fill:#9f9f9f;fill-opacity:0.99607801" />
    <rect
       id="rect75"
       y="0.0017432664"
       x="40.7267"
       width="46.5448"
       ry="0.249291"
       rx="0.206393"
       height="46.544857"
       style="fill:url(#a)" />
    <path
       id="path77"
       style="fill:url(#b);stroke:#1f1f1f;stroke-width:3;stroke-linecap:square;stroke-linejoin:round;stroke-opacity:0.92488302"
       d="M 20.3781,40.835999 H 108 c 0.10394,0 0.18762,0.155157 0.18762,0.347885 v 16.468231 c 0,0.192728 -0.12556,0.264562 -0.18762,0.347885 l -7.44861,9.999997 0.36376,5.999998 H 27.462944 L 27.82671,67.999997 20.3781,58 C 20.31034,57.90903 20.190476,57.844843 20.190476,57.652115 V 41.183884 c 0,-0.192728 0.08368,-0.347885 0.187624,-0.347885 z"
       inkscape:connector-curvature="0" />
    <g
       id="g85"
       style="fill-rule:evenodd">
      <path
         id="path79"
         d="m 22,92 -2,20 h 88 l -2,-20 z"
         inkscape:connector-curvature="0"
         style="fill:#424245" />
      <path
         id="path81"
         d="m 29.938517,92.01838 -4.311398,28.59179 H 103.23229 L 98.920888,92.01838 Z"
         inkscape:connector-curvature="0"
         style="fill:#434343" />
      <path
         id="path83"
         d="m 32.019511,92.01838 -3.997561,25.99714 h 71.9561 L 95.980489,92.01838 Z"
         style="fill:url(#e)"
         inkscape:connector-curvature="0" />
    </g>
    <rect
       id="rect87"
       y="84.001602"
       x="28"
       width="72"
       ry="0.26632899"
       rx="0.206393"
       height="8.5467653" />
    <rect
       id="rect89"
       y="68.215729"
       x="52.3629"
       width="23.2724"
       ry="0.15601701"
       rx="0.206393"
       height="7.4213729"
       style="fill:url(#d)" />
    <rect
       id="rect91"
       y="40.7285"
       x="40.7267"
       width="46.5448"
       ry="1.007805"
       rx="0.30959001"
       height="23.2724"
       style="opacity:0.92000002;fill:url(#f)" />
    <rect
       id="rect93"
       y="40.7285"
       x="42.100578"
       width="45.170921"
       ry="0.640315"
       rx="0.28118101"
       height="15.118958"
       style="fill:#986aae" />
    <rect
       id="rect95"
       y="40.7285"
       x="43.841286"
       width="40.775043"
       ry="0.52547199"
       rx="0.25799099"
       height="11.6362"
       style="fill:#c9b1d5" />
    <rect
       id="rect97"
       y="40.7285"
       x="46.5457"
       width="34.9077"
       ry="0.26655301"
       rx="0.25799099"
       height="5.8181"
       style="fill:#1d1d1d" />
    <path
       id="path99"
       d="M 28,84 27.462944,73.999995 H 100.91515 L 100,84 Z"
       inkscape:connector-curvature="0"
       style="fill:#545156;fill-rule:evenodd" />
  </g>
</svg>
